X:1
T:The Star-Spangled Banner
T:John Stafford Smith (1750-1836)
T:2011
Z:2011
L:1/8
M:3/4
K:Bb
V:1 treble nm="Flute" snm="Fl."
V:1
 f>d B2 d2 | f2 b4 | d'>c' b2 d2 | =e2 f4 | ff d'3 c' | b2 a4 | ga b2 b2 | f2 d2 B2 | f>d B2 d2 | %9
 f2 b4 | d'>c' b2 d2 | =e2 f4 | ff d'3 c' | b2 a4 | ga b2 b2 | f2 d2 B2 | dd d2 e2 | f2 f4 | %18
 ed c2 d2 | e2 e4 | ee d3 c | B2 A2 A2 | GA B2 d2 | =e2 f4 | ff b2 b2 | ba g2 g2 | g2 c'2 e'd' | %27
 c'b b2 a2 | ff b3 c' | d'e' f'4 | bc' d'3 e' | c'2 b4 | z6 | z6 | z6 | z6 |] %36

